!!!OTL: Der Raubmord von Stockheim (10), S. 51
!!!id: T0115
**kern
*clefG2
*k[b-]
*F:
{8c
8f
8a
=1
2cc
4cc
8dd
8cc
=2
8a
8cc
4f}
4r
=3
{8g
8a
=4
4b-
4b-
4b-
8cc
8a
=5
4g}
4.r
=6
{8c
8f
8a
=7
2cc
4cc
8dd
8cc
=8
8a
8cc
4f}
4r
=9
{4f
=10
4e
4c
8d
8d
8d
8d
=11
4c}
4.r
=12
{8a
8b-
8e
=13
4f
4f
4.dd
8cc
=14
8cc
8b-
4b-}
8r
=15
{8b-
8b-
8a
=16
4.g
8g
4.cc
8b-
=17
4b-
4a}
8r
=18
{8a
8a
8a
=19
4cc
4a
4ff
8ee
8dd
=20
8dd
8cc
4cc}
8r
=21
{8a
8b-
8a
=22
4g
8dd
8dd
4dd
8cc
8e
=23
4e
4f}
8r
==
*-
!!!minrhy: 8
!!!meters: 4/4 ]  ZZ[8
!!!cut: Der Raubmord von Stockheim (10), S. 51
!!!reg: Luxemburg
!!!trd: Singendes Volk, Esch-Alzette 1937 posth.
!!!rhy1: XXX  X__X_XX  XXX_0_
!!!rhy2: XX  X_X_X_XX  X_0_.
!!!key: T0115  08  F 4/4 ]  ZZ[8
!!!mod: HEPTATONIK IONISCH]  AMBITUS[11
!!!kad: 121-54351
!!!akz: 553_442_553_-7-6-5_165_254_5+16_26-7_
!!!fot: 'a__as'a__b__c__d__e__f__
!!!for: 'a__b__a__c__d__e__bw_f__
!!!fok: '^a_^__^a_\__/__\__^a_^d_
!! PHRAS[AUFTAKTIG]
!!!fkt: "erz&auml;hlende Lieder"
!!!bem1: WILTZ;
!!!bem2: gesungen von hhh Johann Lambert am 4.7.1915
!! THILL, Mathias:
!! PR[19] 2K[0] 2G[5] 3K[19] 3G[5] 4A[0] 4Ü[0] 5A[0] 6K[0] 6G[0]
!! 7K[0] 7G[0] 8A[0] MEHR[0] SI[29] ABS[21] SR[5] SP[24]
!! ST[8] 2k[14] 2g[29] 3k[5] 3g[5] 4d[0] 4ü[0] 5d[0] 6k[0] 6g[0]
!! 7k[0] 7g[0] 8d[0] mehr[0] si[52] dm[-23] sr[43] sp[10]
!! 1F[18] 2F[64] 3F[18] 4F[0] LF[0] 2P[0] 3P[0] 4P[0] TRI[0] DF[3] AB[22]
!! TF[0] U3K[0] U3[0] U4[0] U4Ü[0] U5[0] U6K[0] U6[0] U7K[0] U7[5]
!! N1[23] N2K[0] N2[18] N3K[0] N3[36] N4[9] N4Ü[0] N5[9] N6K[0] N6[0]
!!!n7k: 0] N7[0] O1[0] O2K[0] O2[0] O3K[0] O3[0] HÖ[0
!!!RNB: symbol: &auml;      = a umlaut  (UTF-8: Å„)
